X:5
T:Bull Beer
R:strathspey
C:Paul Cranford
O:Cape Breton Island
S:http://www.cranfordpub.com
D:The Lighthouse, Paul Cranford, 1996
B:The Lighthouse Collection, Paul Stewart Cranford
Z:psc, (re-formatted,updated 9/20/04)
N:
H:                                                    copyrights Cranford Publications, SOCAN
Q:266
L:1/8
M:C
K:Edor
E>ed>e B<EG>A|B<EG>B A/G/F/E/ D>F|E>ed>e B<EG>c|d>DF>B A/G/F/E/ D>F|
E>ed>e B<EG>A|B<EG>B A/G/F/E/ D>F|E>ed>e g>eB<e|d>DF>B A/G/F/E/ D||
||F|G>dB>g d<G B2|d>GB>G A/G/F/E/ D>F|G>dB>g d<G B>c|d>DF>B A/G/F/E/ D>F|
G>dB>g d<G B2|d>GB>G A/G/F/E/ D>f|g>eB<e d<eB>e|d>DF>B A/G/F/E/ D>|]
